X:1
T:Some Day, Somewhere
T:George F. Rosche
T:Some Day, Somewhere
T:Public Domain
T:Public Domain
T:Public Domain
C:George F. Rosche
Z:Public Domain
%%score ( 1 2 ) ( 3 4 )
L:1/8
M:4/4
K:F
V:1 treble 
V:2 treble 
V:3 bass 
V:4 bass 
V:1
"^Prelude" c2 | [ca]3 [ca] [db][db][df][_dg] | [ca]6 [ca]2 | [Bg][Af][^Ge][Gd] [Ac][=GB][FA][EG] | %4
w: ~|~ ~ ~ ~ ~ ~|~ ~|~ ~ ~ ~ ~ ~ ~ ~|
w: ~|~ ~ ~ ~ ~ ~|~ ~|~ ~ ~ ~ ~ ~ ~ ~|
w: ~|~ ~ ~ ~ ~ ~|~ ~|~ ~ ~ ~ ~ ~ ~ ~|
 FCD_D C2 || C2 | [CA]3 [CA] [DB][DB][DF][_DG] | [CA]6 [A,F]2 | [B,G]3 [A,^F] [CA][B,G][B,E][B,D] | %9
w: ~ ~ ~ ~ ~|day|jour- ney will be done, Some-|where we’ll|find a prom- ised rest; Some|
w: ~ ~ ~ ~ ~|day|meet our loved and lost, Some-|where in|some far bright- er land; Some|
w: ~ ~ ~ ~ ~|day|Lord will call us home, Some-|where we’ll|lay our bur- den down; Some|
 [A,C]6 C2 | [CA]3 [_Ec] [DB][DB][DF][_DG] | [CA]6 [CA]2 | [=B,G]3 [DG] [FG][FG][FA][F=B] | %13
w: day all|row turn to joy, Some- where,|some day|we shall be blest. * *|
w: day we’ll|the new, new song, And join|with praise|an an- gel band. Some day,|
w: day, if|have faith- ful been, Some- where|we will|re- ceive a crown. * *|
 [Ec]6 ||"^Refrain" C2 | [DF]6 [DF]2 | [^CA]6 [DA]2 | [EG]3 [^D^F] [EG][=FA][GB][Ec] | %18
w: |||||
w: some|day,|where, the|place we|can- not see; Some day, some|
w: |||||
 [FA]6 [Ac]2 | [^Gd]6 [Ac]2 | [FA]6 [FA]2 | [FG]3 [^FA] [GB][GB][=FA][EG] | [CF]6 || %23
w: |||||
w: day, Some-|where the|Sav- ior|waits for me. * * *||
w: |||||
V:2
 x2 | x8 | x8 | x8 | F6 || C2 | x8 | x8 | x8 | x6 C2 | x8 | x8 | x8 | x6 || C2 | x8 | x8 | x8 | %18
w: ||||1.~Some|the||||sor-|||||||||
w: ||||2.~Some|we’ll||||sing|||||Some-||||
w: ||||3.~Some|our||||we|||||||||
 x8 | x8 | x8 | x8 | x6 || %23
w: |||||
w: |||||
w: |||||
V:3
 z2 | z F,A,C B,G,A,B, | F,C,=B,,C, [F,A,]2 z2 | [CE][DF][=B,F][B,F] [CF][G,D]C[C,_B,] | %4
 A,2 B,2 A,2 || z2 | ([F,,F,]2 [F,A,]2) [B,,F,]2 [F,B,]2 | ([F,,F,]2 [F,A,]2 [C,F,]2) z2 | %8
 ([C,,C,]2 [E,G,]2) [C,,C,]2 [C,G,]2 | ([F,,F,]2 [F,A,]2 [C,F,]2) z2 | %10
 ([F,,F,]2 [F,A,]2) [B,,F,]2 [F,B,]2 | ([F,,F,]2 [F,A,]2 [C,F,]2) z2 | %12
 ([G,,G,]2 [D,G,]2) [D,G,=B,]2 [G,B,][D,G,] | (C2 [B,D][A,C] [G,B,]2) || [F,A,]2 | %15
 [D,A,]6 [D,A,]2 | [A,,A,]6 [F,A,]2 | [C,B,]3 [C,A,] [C,B,][C,C][C,D][C,C] | [F,C]6 [F,C]2 | %19
 [F,=B,]6 [F,C]2 | [F,C]6 [D,D]2 | [B,D]3 [A,D] [G,D][G,D]C[C,B,] | [F,A,]6 || %23
V:4
 x2 | x8 | C4 x4 | x8 | F,6 || x2 | x8 | x8 | x8 | x8 | x8 | x8 | x8 | C,6 || x2 | x8 | x8 | x8 | %18
 x8 | x8 | x8 | x6 C x | x6 || %23

